assets/icons/otpMessageIcon.svg

<svg width="137" height="137" viewBox="0 0 137 137" fill="none" xmlns="http://www.w3.org/2000/svg">
<rect width="137" height="137" rx="40" fill="#E23E3E"/>
<path d="M89.9375 61.4375C92.6632 61.4375 95.3277 60.6375 97.594 59.1386C99.8603 57.6398 101.627 55.5094 102.67 53.0169C103.713 50.5244 103.986 47.7817 103.454 45.1357C102.922 42.4897 101.61 40.0592 99.6823 38.1515C97.755 36.2438 95.2994 34.9447 92.6261 34.4184C89.9528 33.892 87.1819 34.1622 84.6637 35.1946C82.1455 36.227 79.9931 37.9754 78.4788 40.2186C76.9645 42.4617 76.1563 45.099 76.1563 47.7969C76.1619 51.4129 77.6157 54.8792 80.199 57.4361C82.7822 59.993 86.2842 61.4319 89.9375 61.4375ZM85.7725 41.507L89.4475 40.2945C89.6777 40.2188 89.9228 40.1985 90.1625 40.2354C90.4022 40.2723 90.6296 40.3653 90.8256 40.5067C91.0251 40.6447 91.1878 40.8284 91.2998 41.0422C91.4118 41.256 91.4698 41.4935 91.4688 41.7344V53.8594C91.4688 54.2613 91.3074 54.6469 91.0203 54.9311C90.7331 55.2153 90.3436 55.375 89.9375 55.375C89.5314 55.375 89.1419 55.2153 88.8548 54.9311C88.5676 54.6469 88.4063 54.2613 88.4063 53.8594V43.8411L86.7525 44.3867C86.3667 44.5154 85.9451 44.487 85.5804 44.3079C85.2157 44.1289 84.9378 43.8138 84.8078 43.4319C84.6779 43.05 84.7065 42.6327 84.8874 42.2717C85.0683 41.9107 85.3867 41.6357 85.7725 41.507ZM88.8044 64.4081L79.5097 73.1836L100.656 92.7958V60.6494C97.6427 63.1208 93.8511 64.4718 89.9375 64.4688C89.5547 64.4688 89.1872 64.4384 88.8044 64.4081ZM72.5119 79.7917C70.9727 81.2507 68.9238 82.0652 66.7927 82.0652C64.6615 82.0652 62.6126 81.2507 61.0734 79.7917L56.5256 75.3964L33.3425 96.9031C33.4897 97.991 34.0298 98.9894 34.863 99.7138C35.6962 100.438 36.7661 100.84 37.875 100.844H96.0625C97.1714 100.84 98.2414 100.438 99.0745 99.7138C99.9077 98.9894 100.448 97.991 100.595 96.9031L77.2894 75.2752L72.5119 79.7917ZM33.3731 53.0258C33.3115 53.2994 33.2807 53.579 33.2813 53.8594V92.7958L54.3206 73.2745L33.3731 53.0258Z" fill="white"/>
<path d="M70.3835 77.6092L85.0681 63.7564C81.8604 62.7898 79.016 60.8999 76.8972 58.3277C74.7783 55.7554 73.481 52.6171 73.1703 49.3125H37.875C36.8162 49.3139 35.7916 49.6841 34.981 50.3583L63.2019 77.6092C64.1667 78.5282 65.4537 79.0415 66.7927 79.0415C68.1317 79.0415 69.4186 78.5282 70.3835 77.6092Z" fill="white"/>
</svg>

<svg width="137" height="137" viewBox="0 0 137 137" fill="none" xmlns="http://www.w3.org/2000/svg">
    <rect width="137" height="137" rx="40" fill="url(#0uxzv4iuya)"/>
    <path d="M89.938 61.438c2.725 0 5.39-.8 7.656-2.3a13.672 13.672 0 0 0 5.076-6.121 13.51 13.51 0 0 0 .784-7.881 13.598 13.598 0 0 0-3.772-6.985 13.825 13.825 0 0 0-7.056-3.733 13.913 13.913 0 0 0-7.962.777 13.752 13.752 0 0 0-6.185 5.024 13.541 13.541 0 0 0-2.323 7.578 13.591 13.591 0 0 0 4.043 9.64 13.875 13.875 0 0 0 9.739 4zm-4.166-19.931 3.675-1.212a1.54 1.54 0 0 1 1.379.212 1.495 1.495 0 0 1 .643 1.227V53.86c0 .402-.162.788-.449 1.072a1.54 1.54 0 0 1-2.165 0 1.508 1.508 0 0 1-.449-1.072V43.841l-1.654.546c-.385.128-.807.1-1.172-.08a1.524 1.524 0 0 1-.772-.875c-.13-.382-.102-.8.08-1.16.18-.361.499-.636.884-.765zm3.032 22.901-9.294 8.776 21.146 19.612V60.649a16.885 16.885 0 0 1-10.719 3.82c-.382 0-.75-.03-1.133-.06zM72.512 79.792a8.314 8.314 0 0 1-5.72 2.273 8.315 8.315 0 0 1-5.719-2.273l-4.547-4.396-23.184 21.507a4.53 4.53 0 0 0 1.521 2.81 4.618 4.618 0 0 0 3.012 1.131h58.188a4.618 4.618 0 0 0 3.011-1.13 4.53 4.53 0 0 0 1.521-2.81L77.289 75.274l-4.777 4.517zM33.373 53.026a3.759 3.759 0 0 0-.092.833v38.937l21.04-19.522-20.948-20.248z" fill="#fff"/>
    <path d="m70.383 77.61 14.685-13.854a16.9 16.9 0 0 1-8.17-5.428 16.626 16.626 0 0 1-3.728-9.016H37.875a4.536 4.536 0 0 0-2.894 1.046l28.22 27.251a5.207 5.207 0 0 0 3.592 1.433 5.207 5.207 0 0 0 3.59-1.433z" fill="#fff"/>
    <defs>
        <linearGradient id="0uxzv4iuya" x1="0" y1="-8.412" x2="158.154" y2="16.091" gradientUnits="userSpaceOnUse">
            <stop stop-color="#53E88B"/>
            <stop offset="1" stop-color="#15BE77"/>
        </linearGradient>
    </defs>
</svg>
